public/img/geo.svg

<svg width="12" height="15" viewBox="0 0 12 15" fill="none" xmlns="http://www.w3.org/2000/svg">
<path d="M5.99999 15C4.91736 14.1024 3.91387 13.1183 2.99999 12.0581C1.62857 10.4659 7.53336e-07 8.09468 7.53336e-07 5.83512C-0.000594015 4.68115 0.351007 3.55294 1.01031 2.59327C1.66961 1.63361 2.60697 0.885634 3.70376 0.444003C4.80056 0.0023718 6.00748 -0.113061 7.1718 0.112313C8.33611 0.337687 9.40547 0.893737 10.2445 1.71009C10.8032 2.2507 11.246 2.89364 11.5473 3.6017C11.8486 4.30976 12.0025 5.06888 12 5.83512C12 8.09468 10.3714 10.4659 8.99998 12.0581C8.0861 13.1183 7.0826 14.1024 5.99999 15ZM5.99999 3.33561C5.318 3.33561 4.66395 3.59895 4.18172 4.0677C3.69948 4.53645 3.42856 5.17221 3.42856 5.83512C3.42856 6.49803 3.69948 7.13379 4.18172 7.60254C4.66395 8.07129 5.318 8.33463 5.99999 8.33463C6.68197 8.33463 7.33602 8.07129 7.81826 7.60254C8.30049 7.13379 8.57141 6.49803 8.57141 5.83512C8.57141 5.17221 8.30049 4.53645 7.81826 4.0677C7.33602 3.59895 6.68197 3.33561 5.99999 3.33561Z" fill="#08A6BB"/>
</svg>

<svg width="12" height="15" fill="none" xmlns="http://www.w3.org/2000/svg"><path d="M6 15a25.167 25.167 0 01-3-2.942c-1.371-1.592-3-3.963-3-6.223 0-1.154.351-2.282 1.01-3.242A5.967 5.967 0 013.704.444 6.16 6.16 0 017.172.112a6.055 6.055 0 013.073 1.598 5.786 5.786 0 011.302 1.892A5.65 5.65 0 0112 5.835c0 2.26-1.629 4.63-3 6.223A25.168 25.168 0 016 15zM6 3.336a2.61 2.61 0 00-1.818.732 2.465 2.465 0 00-.753 1.767c0 .663.27 1.299.753 1.768A2.61 2.61 0 006 8.335a2.61 2.61 0 001.818-.732 2.465 2.465 0 00.753-1.768c0-.663-.27-1.299-.753-1.767A2.61 2.61 0 006 3.336z" fill="#08A6BB"/></svg>
